Sweet-Rainbow/icons/distributor-logo-antergos.svg

<?xml version="1.0" encoding="UTF-8" standalone="no"?>
<!-- Generator: Gravit.io -->

<svg
   xmlns:dc="http://purl.org/dc/elements/1.1/"
   xmlns:cc="http://creativecommons.org/ns#"
   xmlns:rdf="http://www.w3.org/1999/02/22-rdf-syntax-ns#"
   xmlns:svg="http://www.w3.org/2000/svg"
   xmlns="http://www.w3.org/2000/svg"
   xmlns:sodipodi="http://sodipodi.sourceforge.net/DTD/sodipodi-0.dtd"
   xmlns:inkscape="http://www.inkscape.org/namespaces/inkscape"
   style="isolation:isolate"
   viewBox="0 0 36 36"
   width="48"
   height="48"
   version="1.1"
   id="svg9"
   sodipodi:docname="distributor-logo-antergos.svg"
   inkscape:version="0.92.4 (5da689c313, 2019-01-14)">
  <metadata
     id="metadata15">
    <rdf:RDF>
      <cc:Work
         rdf:about="">
        <dc:format>image/svg+xml</dc:format>
        <dc:type
           rdf:resource="http://purl.org/dc/dcmitype/StillImage" />
        <dc:title></dc:title>
      </cc:Work>
    </rdf:RDF>
  </metadata>
  <defs
     id="defs13" />
  <sodipodi:namedview
     pagecolor="#ffffff"
     bordercolor="#666666"
     borderopacity="1"
     objecttolerance="10"
     gridtolerance="10"
     guidetolerance="10"
     inkscape:pageopacity="0"
     inkscape:pageshadow="2"
     inkscape:window-width="640"
     inkscape:window-height="480"
     id="namedview11"
     showgrid="false"
     inkscape:zoom="29.365243"
     inkscape:cx="25.325443"
     inkscape:cy="32"
     inkscape:current-layer="svg9"
     units="px" />
  <linearGradient
     id="_lgradient_14"
     x1="-3.8208334e-05"
     y1="0.50000006"
     x2="0.99996185"
     y2="0.50000006"
     gradientTransform="matrix(43.002,0,0,43.004,2.499,2.5)"
     gradientUnits="userSpaceOnUse">
    <stop
       offset="0%"
       stop-opacity="1"
       style="stop-color:rgb(0,198,255)"
       id="stop2" />
    <stop
       offset="98.69565217391305%"
       stop-opacity="1"
       style="stop-color:rgb(0,114,255)"
       id="stop4" />
  </linearGradient>
  <g
     id="g826"
     transform="matrix(0.83713667,0,0,0.83713667,-2.0912801,-2.0928416)">
    <path
       id="path7"
       d="m 24,5.5 c 0.88,0.03 1.75,0.25 2.54,0.64 1.11,0.53 2.14,1.19 3.07,1.98 1.14,0.94 2.21,1.98 3.18,3.09 1.09,1.24 2.11,2.54 3.04,3.89 1.93,2.77 3.54,5.74 4.8,8.87 0.57,1.4 1.04,2.84 1.39,4.31 0.3,1.22 0.46,2.48 0.48,3.74 0.01,1.18 -0.17,2.35 -0.54,3.46 -0.31,0.91 -0.78,1.76 -1.39,2.49 -0.6,0.72 -1.32,1.33 -2.11,1.83 -0.85,0.53 -1.75,0.96 -2.7,1.28 -1,0.35 -2.03,0.62 -3.07,0.81 -1.04,0.2 -2.1,0.34 -3.15,0.43 -1.85,0.14 -3.69,0.2 -5.54,0.18 -1.85,0.02 -3.69,-0.04 -5.54,-0.18 C 17.41,42.23 16.35,42.09 15.31,41.89 14.27,41.7 13.24,41.43 12.24,41.08 11.29,40.76 10.39,40.33 9.54,39.8 8.75,39.3 8.03,38.69 7.43,37.97 6.82,37.24 6.35,36.39 6.04,35.48 5.67,34.37 5.49,33.2 5.5,32.02 5.52,30.76 5.68,29.5 5.98,28.28 6.33,26.81 6.8,25.37 7.37,23.97 c 1.26,-3.13 2.87,-6.1 4.8,-8.87 0.93,-1.35 1.95,-2.65 3.04,-3.89 C 16.18,10.1 17.25,9.06 18.39,8.12 19.32,7.33 20.35,6.67 21.45,6.14 22.25,5.75 23.11,5.53 24,5.5 Z m 0,-3 c 1.34,0.03 2.67,0.35 3.87,0.95 1.31,0.63 2.54,1.43 3.66,2.37 1.26,1.04 2.44,2.18 3.52,3.41 1.16,1.32 2.25,2.71 3.25,4.17 2.05,2.94 3.77,6.11 5.11,9.44 0.63,1.54 1.14,3.12 1.52,4.73 0.36,1.44 0.55,2.92 0.57,4.41 0.02,1.52 -0.22,3.02 -0.69,4.46 -0.43,1.26 -1.09,2.43 -1.94,3.46 -0.81,0.96 -1.76,1.78 -2.82,2.44 -1.04,0.65 -2.15,1.18 -3.31,1.58 -1.14,0.39 -2.31,0.7 -3.5,0.92 -1.15,0.22 -2.3,0.37 -3.46,0.47 -1.93,0.15 -3.85,0.21 -5.78,0.19 -1.93,0.02 -3.85,-0.04 -5.78,-0.19 -1.16,-0.1 -2.31,-0.25 -3.46,-0.47 C 13.57,44.62 12.4,44.31 11.26,43.92 10.1,43.52 8.99,42.99 7.95,42.34 6.89,41.68 5.94,40.86 5.13,39.9 4.28,38.87 3.62,37.7 3.19,36.44 2.72,35 2.48,33.5 2.5,31.98 2.52,30.49 2.71,29.01 3.07,27.57 3.45,25.96 3.96,24.38 4.59,22.84 5.93,19.51 7.65,16.34 9.7,13.4 10.7,11.94 11.79,10.55 12.96,9.23 14.03,8 15.21,6.86 16.47,5.82 17.59,4.88 18.82,4.08 20.14,3.44 21.34,2.85 22.66,2.53 24,2.5 Z M 24.066,13 c -0.041,0.004 -0.078,0.022 -0.107,0.051 -3.25,3.133 -7.03,5.278 -10.727,6.454 -0.042,0.014 -0.078,0.042 -0.1,0.081 -0.579,0.992 -0.942,2.471 -1.076,4.02 -0.134,1.548 -0.036,3.164 0.34,4.422 0.017,0.057 0.062,0.102 0.119,0.12 0.057,0.017 0.119,0.005 0.166,-0.032 2.653,-2.153 8.684,-4.802 12.65,-14.869 0.022,-0.056 0.015,-0.119 -0.019,-0.168 C 25.278,13.029 25.222,13 25.163,13 h -1.08 c -0.006,0 -0.012,0 -0.018,0 z m 3.248,0.36 c -0.08,0.004 -0.148,0.061 -0.166,0.139 -1.944,8.259 -4.227,16.18 -9.664,21.2 -0.037,0.034 -0.058,0.082 -0.059,0.132 0,0.05 0.02,0.098 0.057,0.133 2.134,1.994 5.249,2.311 8.785,1.85 0.064,-0.008 0.118,-0.05 0.143,-0.109 3.919,-9.26 3.617,-17.542 1.078,-23.236 -0.031,-0.069 -0.1,-0.111 -0.174,-0.107 z m 3.231,1.444 c -0.061,0.005 -0.114,0.041 -0.142,0.095 -0.029,0.053 -0.028,0.118 0.001,0.171 2.903,5.493 3.368,11.353 3.576,16.88 0.003,0.088 0.069,0.16 0.156,0.172 0.087,0.011 0.169,-0.041 0.196,-0.125 0.811,-2.581 1.812,-5.258 1.65,-8.107 -0.162,-2.85 -1.503,-5.852 -5.305,-9.043 -0.032,-0.028 -0.073,-0.043 -0.115,-0.043 -0.006,-10e-4 -0.012,-10e-4 -0.017,0 z"
       style="fill:url(#_lgradient_14);fill-rule:evenodd"
       inkscape:connector-curvature="0" />
  </g>
</svg>

<?xml version="1.0" encoding="UTF-8" standalone="no"?><!-- Generator: Gravit.io --><svg xmlns="http://www.w3.org/2000/svg" xmlns:xlink="http://www.w3.org/1999/xlink" style="isolation:isolate" viewBox="0 0 48 48" width="48pt" height="48pt"><linearGradient id="_lgradient_14" x1="-0.000038208333333289435" y1="0.5000000833333331" x2="0.9999618333333335" y2="0.5000000833333331" gradientTransform="matrix(43.002,0,0,43.004,2.499,2.5)" gradientUnits="userSpaceOnUse"><stop offset="0%" stop-opacity="1" style="stop-color:rgb(0,198,255)"/><stop offset="98.69565217391305%" stop-opacity="1" style="stop-color:rgb(0,114,255)"/></linearGradient><path d=" M 24 5.5 C 24.88 5.53 25.75 5.75 26.54 6.14 C 27.65 6.67 28.68 7.33 29.61 8.12 C 30.75 9.06 31.82 10.1 32.79 11.21 C 33.88 12.45 34.9 13.75 35.83 15.1 C 37.76 17.87 39.37 20.84 40.63 23.97 C 41.2 25.37 41.67 26.81 42.02 28.28 C 42.32 29.5 42.48 30.76 42.5 32.02 C 42.51 33.2 42.33 34.37 41.96 35.48 C 41.65 36.39 41.18 37.24 40.57 37.97 C 39.97 38.69 39.25 39.3 38.46 39.8 C 37.61 40.33 36.71 40.76 35.76 41.08 C 34.76 41.43 33.73 41.7 32.69 41.89 C 31.65 42.09 30.59 42.23 29.54 42.32 C 27.69 42.46 25.85 42.52 24 42.5 C 22.15 42.52 20.31 42.46 18.46 42.32 C 17.41 42.23 16.35 42.09 15.31 41.89 C 14.27 41.7 13.24 41.43 12.24 41.08 C 11.29 40.76 10.39 40.33 9.54 39.8 C 8.75 39.3 8.03 38.69 7.43 37.97 C 6.82 37.24 6.35 36.39 6.04 35.48 C 5.67 34.37 5.49 33.2 5.5 32.02 C 5.52 30.76 5.68 29.5 5.98 28.28 C 6.33 26.81 6.8 25.37 7.37 23.97 C 8.63 20.84 10.24 17.87 12.17 15.1 C 13.1 13.75 14.12 12.45 15.21 11.21 C 16.18 10.1 17.25 9.06 18.39 8.12 C 19.32 7.33 20.35 6.67 21.45 6.14 C 22.25 5.75 23.11 5.53 24 5.5 L 24 5.5 Z  M 24 2.5 C 25.34 2.53 26.67 2.85 27.87 3.45 C 29.18 4.08 30.41 4.88 31.53 5.82 C 32.79 6.86 33.97 8 35.05 9.23 C 36.21 10.55 37.3 11.94 38.3 13.4 C 40.35 16.34 42.07 19.51 43.41 22.84 C 44.04 24.38 44.55 25.96 44.93 27.57 C 45.29 29.01 45.48 30.49 45.5 31.98 C 45.52 33.5 45.28 35 44.81 36.44 C 44.38 37.7 43.72 38.87 42.87 39.9 C 42.06 40.86 41.11 41.68 40.05 42.34 C 39.01 42.99 37.9 43.52 36.74 43.92 C 35.6 44.31 34.43 44.62 33.24 44.84 C 32.09 45.06 30.94 45.21 29.78 45.31 C 27.85 45.46 25.93 45.52 24 45.5 C 22.07 45.52 20.15 45.46 18.22 45.31 C 17.06 45.21 15.91 45.06 14.76 44.84 C 13.57 44.62 12.4 44.31 11.26 43.92 C 10.1 43.52 8.99 42.99 7.95 42.34 C 6.89 41.68 5.94 40.86 5.13 39.9 C 4.28 38.87 3.62 37.7 3.19 36.44 C 2.72 35 2.48 33.5 2.5 31.98 C 2.52 30.49 2.71 29.01 3.07 27.57 C 3.45 25.96 3.96 24.38 4.59 22.84 C 5.93 19.51 7.65 16.34 9.7 13.4 C 10.7 11.94 11.79 10.55 12.96 9.23 C 14.03 8 15.21 6.86 16.47 5.82 C 17.59 4.88 18.82 4.08 20.14 3.44 C 21.34 2.85 22.66 2.53 24 2.5 L 24 2.5 Z  M 24.066 13 C 24.025 13.004 23.988 13.022 23.959 13.051 C 20.709 16.184 16.929 18.329 13.232 19.505 C 13.19 19.519 13.154 19.547 13.132 19.586 C 12.553 20.578 12.19 22.057 12.056 23.606 C 11.922 25.154 12.02 26.77 12.396 28.028 C 12.413 28.085 12.458 28.13 12.515 28.148 C 12.572 28.165 12.634 28.153 12.681 28.116 C 15.334 25.963 21.365 23.314 25.331 13.247 C 25.353 13.191 25.346 13.128 25.312 13.079 C 25.278 13.029 25.222 13 25.163 13 L 24.083 13 C 24.077 13 24.071 13 24.065 13 L 24.066 13 L 24.066 13 Z  M 27.314 13.36 C 27.234 13.364 27.166 13.421 27.148 13.499 C 25.204 21.758 22.921 29.679 17.484 34.699 C 17.447 34.733 17.426 34.781 17.425 34.831 C 17.425 34.881 17.445 34.929 17.482 34.964 C 19.616 36.958 22.731 37.275 26.267 36.814 C 26.331 36.806 26.385 36.764 26.41 36.705 C 30.329 27.445 30.027 19.163 27.488 13.469 C 27.457 13.4 27.388 13.358 27.314 13.362 L 27.314 13.36 L 27.314 13.36 Z  M 30.545 14.804 C 30.484 14.809 30.431 14.845 30.403 14.899 C 30.374 14.952 30.375 15.017 30.404 15.07 C 33.307 20.563 33.772 26.423 33.98 31.95 C 33.983 32.038 34.049 32.11 34.136 32.122 C 34.223 32.133 34.305 32.081 34.332 31.997 C 35.143 29.416 36.144 26.739 35.982 23.89 C 35.82 21.04 34.479 18.038 30.677 14.847 C 30.645 14.819 30.604 14.804 30.562 14.804 C 30.556 14.803 30.55 14.803 30.545 14.804 L 30.545 14.804 L 30.545 14.804 Z " fill-rule="evenodd" fill="url(#_lgradient_14)"/></svg>
